X: 1225
T: An Dro
R: barndance
M: 4/4
K: Bdorian
|:E2 EB, D2 F2|E2 ED CD CA,|B,2 DE F2 F2|
E2 EB, D2 F2|EF GA F2 DC|E2 D2 B,2 B,B,:|
|:E2 FA G2 GF|EF GA G2 FE|D2 EG F2 FE|
DE CA, B,2 DE|FG F2 E2 FA|G2 GF EF GA|
G2 FE D2 EG|F2 FE DE CA,|B,2 F2 B,2 B,B,:|

